X:237
T:The Jolly Tinker
S:Ross Ainsley and Jarlath Henderson
S:Michael McGoldrick
Z:robin.beech@mcgill.ca
R:reel
M:4/4
L:1/8
K:Ador
A3B  G3B  | A2fa gedB | A2BA G3B  |1 dBGB d2BG :|2 dBGB d2Bd |:
edef g2ef | g2af gedB | edeg a2eg |1 a3f  gedg :|2 a3f  gedB |:
eaag efgf | eaag egdg | eaag efge | dBGB d2Bd :|
edgd edBe | edgd e2Be | edgd efge | dBGB d2Bd :|
eAA2 edBd | edef g2fg | eAA2 efge |1 dBGB d2Bd :|2 dBGB d2BG |]
